X: 96
T: When we Go Down To Washington-A
P: piffero primo a0890
O: arr Rachel Sexton
%R: march
F: http://ancients.sudburymuster.org/mus/sng/pdf/whenwego2wash-AC0.pdf
Z: 2020 John Chambers <jc:trillian.mit.edu>
M: 2/4
L: 1/16
K: Bm
fe |\
d2B2 B2cB | F2B2 B2cd | c2A2 ABcd | Te4 f3e |\
d2B2 B2cB | F2B2 B3c | d2f2- fedc | B6 :|
|: fg |\
a2f2 a2fa | b2f2 a4 | bagf ede2 | Tf6 fe |\
d2B2 c2dc | F2B2 B2Bc | d2f2- fedc | B6 :|


